svgs/gesundakte.svg

<svg xmlns="http://www.w3.org/2000/svg" viewBox="0 0 192 192"><path d="M71.405 96.336v18.504a4.103 4.103 0 0 0 4.102 4.103h15.275v15.273a4.103 4.103 0 0 0 4.102 4.102h18.504a4.104 4.104 0 0 0 4.102-4.102v-15.273h15.273a4.103 4.103 0 0 0 4.102-4.103V96.336a4.103 4.103 0 0 0-4.102-4.102H117.49V76.96a4.104 4.104 0 0 0-4.102-4.103H94.884a4.102 4.102 0 0 0-4.102 4.103v15.274H75.507a4.103 4.103 0 0 0-4.102 4.102Zm8.205 4.103h15.274a4.103 4.103 0 0 0 4.103-4.102V81.063h10.299v15.274a4.103 4.103 0 0 0 4.102 4.102h15.272v10.299h-15.272a4.102 4.102 0 0 0-4.102 4.102v15.273H98.987V114.84a4.103 4.103 0 0 0-4.103-4.102H79.61ZM157.02 16H34.978a4.103 4.103 0 0 0-4.102 4.102v151.581a4.102 4.102 0 0 0 4.102 4.102h122.044a4.103 4.103 0 0 0 4.102-4.102V20.103A4.104 4.104 0 0 0 157.02 16Zm-85.587 8.205h10.733v18l-3.001-2.12a4.107 4.107 0 0 0-4.731 0l-3.001 2.12v-18ZM47.148 167.581h-8.067V24.205h8.067v143.376Zm105.769 0H55.353V24.205h7.875v25.914a4.1 4.1 0 0 0 6.468 3.351l7.104-5.012 7.103 5.012a4.105 4.105 0 0 0 6.469-3.351V24.205h62.546v143.376Zm0 0"/></svg>

<svg
    xmlns="http://www.w3.org/2000/svg"
    viewBox="0 0 192 192"
    id="vector">
    <path
        id="path"
        d="M 71.405 96.336 L 71.405 114.84 C 71.405 117.106 73.242 118.943 75.507 118.943 L 90.782 118.943 L 90.782 134.216 C 90.782 136.481 92.619 138.318 94.884 138.318 L 113.388 138.318 C 115.651 138.318 117.49 136.481 117.49 134.216 L 117.49 118.943 L 132.763 118.943 C 135.028 118.943 136.865 117.106 136.865 114.84 L 136.865 96.336 C 136.865 94.071 135.028 92.234 132.763 92.234 L 117.49 92.234 L 117.49 76.96 C 117.49 74.694 115.651 72.857 113.388 72.857 L 94.884 72.857 C 92.618 72.857 90.782 74.694 90.782 76.96 L 90.782 92.234 L 75.507 92.234 C 73.242 92.234 71.405 94.071 71.405 96.336 Z M 79.61 100.439 L 94.884 100.439 C 97.15 100.439 98.987 98.602 98.987 96.337 L 98.987 81.063 L 109.286 81.063 L 109.286 96.337 C 109.286 98.602 111.123 100.439 113.388 100.439 L 128.66 100.439 L 128.66 110.738 L 113.388 110.738 C 111.122 110.738 109.286 112.575 109.286 114.84 L 109.286 130.113 L 98.987 130.113 L 98.987 114.84 C 98.987 112.575 97.149 110.738 94.884 110.738 L 79.61 110.738 Z M 157.02 16 L 34.978 16 C 32.713 16 30.876 17.837 30.876 20.102 L 30.876 171.683 C 30.876 173.949 32.713 175.785 34.978 175.785 L 157.022 175.785 C 159.287 175.785 161.124 173.948 161.124 171.683 L 161.124 20.103 C 161.123 17.837 159.287 16 157.02 16 Z M 71.433 24.205 L 82.166 24.205 L 82.166 42.205 L 79.165 40.085 C 78.456 39.586 77.627 39.336 76.8 39.336 C 75.971 39.336 75.143 39.586 74.434 40.085 L 71.433 42.205 L 71.433 24.205 Z M 47.148 167.581 L 39.081 167.581 L 39.081 24.205 L 47.148 24.205 L 47.148 167.581 Z M 152.917 167.581 L 55.353 167.581 L 55.353 24.205 L 63.228 24.205 L 63.228 50.119 C 63.228 51.651 64.081 53.058 65.441 53.761 C 66.804 54.466 68.442 54.356 69.696 53.47 L 76.8 48.458 L 83.903 53.47 C 85.155 54.356 86.796 54.466 88.156 53.761 C 89.516 53.056 90.372 51.651 90.372 50.119 L 90.372 24.205 L 152.918 24.205 L 152.918 167.581 Z M 152.917 167.581"
        fill="#000000"
        stroke-width="12"/>
</svg>
